X:834
T:Reel 834
M:4/4
K:Dmaj
L:1/8
A|d2AF DFAc|dBAF GEEc|d2AG FGAF|GBAG FDDc|d2AG FGAF|EFGA BEEc|dcAF GABG|FGEF G2|Ac|fdAd fdad|ddAd cdeg|fdAd fdad|cAGE FDDg|fded fdad|fdAd ceeg|fdec dABG|EFGE FDD|
